images_sukapura_svg/cmd/sc_flowchartshapes.flowchart-multidocument.svg

<svg viewBox="0 0 16 16" xmlns="http://www.w3.org/2000/svg" xmlns:xlink="http://www.w3.org/1999/xlink"><linearGradient id="a" gradientTransform="translate(-29.491525 -7.050847)" gradientUnits="userSpaceOnUse" x1="12" x2="12" y1="21.5" y2="2.5"><stop offset="0" stop-color="#e5eefc"/><stop offset="1" stop-color="#fcfdff"/></linearGradient><linearGradient id="b" gradientUnits="userSpaceOnUse" x1="0" x2="16" xlink:href="#a" y1="7.983533" y2="7.983533"/><linearGradient id="c" gradientUnits="userSpaceOnUse" x1="8.542373" x2="8.135593" xlink:href="#a" y1="16.119127" y2=".45811"/><g fill="url(#b)" stroke="#0a84ff"><path d="m3.5 2.5v3l7 .0002306v4.453125.5468754.703125c.812378-.363938 2.061514-1.089169 3-1.203356v-1.796875-3.203125-1.25-1.25z" fill="url(#b)"/><path d="m5.5.5002306v1.9997694h8v1.25 1.25 3.203125c.812378-.3638432 1.061514-.088613 2-.2028944v-6.25-1.25zm-5 5v2.5 6.2524414c2.918586 2.885809 6.134787-.07662 7.5-.546875.8123775-.36403 1.5615147-.588844 2.5-.703125v-1.132813-.664062-3.2055664-1.25-1.25z" fill="url(#c)" stroke-linejoin="round"/></g></svg>

<?xml version="1.0" encoding="UTF-8" standalone="no"?>
<svg
   xmlns:dc="http://purl.org/dc/elements/1.1/"
   xmlns:cc="http://creativecommons.org/ns#"
   xmlns:rdf="http://www.w3.org/1999/02/22-rdf-syntax-ns#"
   xmlns:svg="http://www.w3.org/2000/svg"
   xmlns="http://www.w3.org/2000/svg"
   xmlns:xlink="http://www.w3.org/1999/xlink"
   xmlns:sodipodi="http://sodipodi.sourceforge.net/DTD/sodipodi-0.dtd"
   xmlns:inkscape="http://www.inkscape.org/namespaces/inkscape"
   viewBox="0 0 16 16"
   version="1.1"
   id="svg8"
   sodipodi:docname="sc_flowchartshapes.flowchart-multidocument.svg"
   inkscape:version="0.92.3 (2405546, 2018-03-11)">
  <metadata
     id="metadata14">
    <rdf:RDF>
      <cc:Work
         rdf:about="">
        <dc:format>image/svg+xml</dc:format>
        <dc:type
           rdf:resource="http://purl.org/dc/dcmitype/StillImage" />
        <dc:title />
      </cc:Work>
    </rdf:RDF>
  </metadata>
  <defs
     id="defs12">
    <linearGradient
       gradientTransform="translate(-29.491525,-7.0508473)"
       id="a"
       gradientUnits="userSpaceOnUse"
       x1="12"
       x2="12"
       y1="21.5"
       y2="2.5">
      <stop
         offset="0"
         stop-color="#e5eefc"
         id="stop1020" />
      <stop
         offset="1"
         stop-color="#fcfdff"
         id="stop1022" />
    </linearGradient>
    <linearGradient
       inkscape:collect="always"
       xlink:href="#a"
       id="linearGradient839"
       x1="0"
       y1="7.9835334"
       x2="16"
       y2="7.9835334"
       gradientUnits="userSpaceOnUse" />
    <linearGradient
       inkscape:collect="always"
       xlink:href="#a"
       id="linearGradient841"
       gradientUnits="userSpaceOnUse"
       x1="8.5423727"
       y1="16.119127"
       x2="8.1355934"
       y2="0.45810965" />
  </defs>
  <sodipodi:namedview
     pagecolor="#ffffff"
     bordercolor="#666666"
     borderopacity="1"
     objecttolerance="10"
     gridtolerance="10"
     guidetolerance="10"
     inkscape:pageopacity="0"
     inkscape:pageshadow="2"
     inkscape:window-width="1366"
     inkscape:window-height="716"
     id="namedview10"
     showgrid="true"
     inkscape:zoom="14.75"
     inkscape:cx="16.136075"
     inkscape:cy="10.047129"
     inkscape:window-x="-8"
     inkscape:window-y="-8"
     inkscape:window-maximized="1"
     inkscape:current-layer="svg8">
    <inkscape:grid
       type="xygrid"
       id="grid822" />
  </sodipodi:namedview>
  <g
     fill="#fff"
     stroke="#808080"
     id="g6"
     style="fill-opacity:1;fill:url(#linearGradient839);stroke:#0a84ff;stroke-opacity:1">
    <path
       d="m 3.5,2.5 v 3 l 7,2.306e-4 v 4.453125 0.5468754 0.703125 C 11.312378,10.839418 12.561514,10.114187 13.5,10 V 8.203125 5 3.75 2.5 Z"
       id="path2"
       style="fill:url(#linearGradient839);fill-opacity:1;stroke:#0a84ff;stroke-opacity:1"
       inkscape:connector-curvature="0"
       sodipodi:nodetypes="cccccccccccc" />
    <path
       d="M 5.5,0.5002306 V 2.5 h 8 V 3.75 5 8.203125 c 0.812378,-0.3638432 1.061514,-0.088613 2,-0.2028944 v -6.25 -1.25 z m -5,5 v 2.5 6.2524414 c 2.918586,2.885809 6.134787,-0.07662 7.5,-0.546875 0.8123775,-0.36403 1.5615147,-0.588844 2.5,-0.703125 v -1.132813 -0.664062 -3.2055664 -1.25 -1.25 z"
       id="path4"
       style="fill:url(#linearGradient841);fill-opacity:1;stroke:#0a84ff;stroke-linejoin:round;stroke-opacity:1"
       inkscape:connector-curvature="0"
       sodipodi:nodetypes="ccccccccccccccccccccc" />
  </g>
</svg>
